X:30
T:White Blanket
Z: id:dc-setdance-31
M:C|
L:1/8
K:G Major
AB|c2E2 E2DE|G2AB c3A|BAGE DEFG|A2AB A2dc|BAGE DEFA|G2GF G2:|!
Bd|e2ef edef|gedB c3A|BAGE DEFG|A2AB A2dc|BAGE DEFA|G2GF G2:|!

